icons/cloudy.svg

<svg width="24" height="24" viewBox="0 0 24 24" fill="none" xmlns="http://www.w3.org/2000/svg">
<path d="M7.70999 12.0002C7.71136 10.6122 8.13131 9.2568 8.91499 8.11118C9.70649 6.9549 10.8218 6.05807 12.121 5.53318C13.4293 5.00321 14.8635 4.86494 16.249 5.13518C17.6293 5.4022 18.9011 6.06798 19.907 7.05018C20.907 8.03018 21.587 9.27718 21.863 10.6342C22.1386 11.9927 21.9968 13.4028 21.456 14.6792C20.9102 15.9641 19.9943 17.0576 18.825 17.8202C17.6446 18.5912 16.2649 19.0012 14.855 19.0002H6.99599C6.28699 19.0002 5.58599 18.8502 4.93999 18.5642C4.29598 18.2796 3.71938 17.8622 3.24799 17.3392C2.78071 16.82 2.43047 16.2065 2.22099 15.5402C2.01207 14.8761 1.94993 14.1745 2.03885 13.4841C2.12777 12.7936 2.36564 12.1307 2.73599 11.5412C3.10861 10.9464 3.60358 10.4378 4.18799 10.0492C4.7764 9.65756 5.44033 9.39355 6.13699 9.27418C6.83554 9.15422 7.55142 9.18113 8.239 9.35318" stroke="white" stroke-width="2" stroke-linecap="round" stroke-linejoin="round"/>
</svg>

<svg
  width="24"
  height="24"
  viewBox="0 0 24 24"
  xmlns="http://www.w3.org/2000/svg"
  fill="none"
  stroke="currentColor"
  stroke-width="2"
  stroke-linecap="round"
  stroke-linejoin="round"
>
  <path d="M7.71 12a6.9 6.9 0 0 1 1.205-3.889 7.115 7.115 0 0 1 3.206-2.578 7.282 7.282 0 0 1 4.128-.398 7.191 7.191 0 0 1 3.658 1.915c1 .98 1.68 2.227 1.956 3.584a6.868 6.868 0 0 1-.407 4.045 7.032 7.032 0 0 1-2.631 3.141 7.25 7.25 0 0 1-3.97 1.18H6.996c-.709 0-1.41-.15-2.056-.436a4.996 4.996 0 0 1-1.692-1.225 4.874 4.874 0 0 1-1.027-1.799 4.806 4.806 0 0 1 .515-3.999 4.944 4.944 0 0 1 1.452-1.492 5.06 5.06 0 0 1 1.949-.775 5.102 5.102 0 0 1 2.102.079" />
</svg>
